src/cmd/ar/sc_alphaliststyle.svg

<svg viewBox="0 0 16 16" xmlns="http://www.w3.org/2000/svg"><path d="m9 2v1h-6v-1zm0 2v1h-4v-1zm0 4v1h-6v-1zm0 2v1h-2v-1zm-3 0v1h-1.875-.125-1v-1h1 .125zm-1 3v1h-2v-1z" fill="#232629"/><path d="m12 2a2 2 0 0 0 -2 2 2 2 0 0 0 2 2h1v-1h-1a1 1 0 0 1 -1-1 1 1 0 0 1 1-1h1v-1zm-2 6v4h1 1a2 2 0 0 0 2-2 2 2 0 0 0 -2-2h-1zm1 1h1a1 1 0 0 1 1 1 1 1 0 0 1 -1 1h-1z" fill="#762572"/></svg>

<?xml version="1.0" encoding="UTF-8" standalone="no"?>
<svg
   xmlns:dc="http://purl.org/dc/elements/1.1/"
   xmlns:cc="http://creativecommons.org/ns#"
   xmlns:rdf="http://www.w3.org/1999/02/22-rdf-syntax-ns#"
   xmlns:svg="http://www.w3.org/2000/svg"
   xmlns="http://www.w3.org/2000/svg"
   xmlns:sodipodi="http://sodipodi.sourceforge.net/DTD/sodipodi-0.dtd"
   xmlns:inkscape="http://www.inkscape.org/namespaces/inkscape"
   viewBox="0 0 16 16"
   version="1.1"
   id="svg6"
   sodipodi:docname="sc_alphaliststyle.svg"
   inkscape:version="0.92.4 (5da689c313, 2019-01-14)">
  <metadata
     id="metadata12">
    <rdf:RDF>
      <cc:Work
         rdf:about="">
        <dc:format>image/svg+xml</dc:format>
        <dc:type
           rdf:resource="http://purl.org/dc/dcmitype/StillImage" />
      </cc:Work>
    </rdf:RDF>
  </metadata>
  <defs
     id="defs10" />
  <sodipodi:namedview
     pagecolor="#ffffff"
     bordercolor="#666666"
     borderopacity="1"
     objecttolerance="10"
     gridtolerance="10"
     guidetolerance="10"
     inkscape:pageopacity="0"
     inkscape:pageshadow="2"
     inkscape:window-width="1920"
     inkscape:window-height="1011"
     id="namedview8"
     showgrid="true"
     inkscape:zoom="29.5"
     inkscape:cx="1.4332648"
     inkscape:cy="9.4459656"
     inkscape:window-x="0"
     inkscape:window-y="32"
     inkscape:window-maximized="1"
     inkscape:current-layer="svg6">
    <inkscape:grid
       type="xygrid"
       id="grid822" />
  </sodipodi:namedview>
  <path
     d="m12 2a2 2 0 0 0 -2 2 2 2 0 0 0 2 2h1v-1h-1a1 1 0 0 1 -1-1 1 1 0 0 1 1-1h1v-1zm-2 6v4h1 1a2 2 0 0 0 2-2 2 2 0 0 0 -2-2h-1zm1 1h1a1 1 0 0 1 1 1 1 1 0 0 1 -1 1h-1z"
     fill="#762572"
     id="path4" />
  <path
     id="path822"
     style="fill:#232629"
     d="m 9,13 v 1 H 3 v -1 z m 0,-3 v 1 H 3 V 10 Z M 9,8 V 9 H 3 V 8 Z M 9,4 V 5 H 3 V 4 Z M 9,2 V 3 H 3 V 2 Z" />
</svg>
